images/insure_logo.svg

<svg width="172" height="39" viewBox="0 0 172 39" fill="none" xmlns="http://www.w3.org/2000/svg">
<path fill-rule="evenodd" clip-rule="evenodd" d="M57.8299 22.5084C57.1757 22.2206 56.5308 21.8972 55.8953 21.5383L54 24.4206C54.6654 24.8019 55.3888 25.1514 56.1701 25.4692C56.9514 25.7869 57.7738 26.0598 58.6374 26.2879C59.5009 26.5159 60.4037 26.6916 61.3458 26.815C62.2879 26.9383 63.2523 27 64.2393 27C65.7346 27 67.0916 26.8598 68.3103 26.5794C69.529 26.2991 70.5701 25.8879 71.4336 25.3458C72.2972 24.8037 72.9626 24.1383 73.4299 23.3495C73.8972 22.5607 74.1308 21.6617 74.1308 20.6523C74.1308 19.8972 73.9925 19.215 73.7159 18.6056C73.4393 17.9963 73.0318 17.4766 72.4935 17.0467C71.9551 16.6168 71.2879 16.286 70.4916 16.0542C69.6953 15.8224 68.7813 15.7065 67.7495 15.7065C67.2037 15.7065 66.6411 15.7346 66.0617 15.7907C65.4822 15.8467 64.914 15.9084 64.357 15.9757L63.5411 16.0724L62.7645 16.1607C62.2598 16.2168 61.8131 16.2449 61.4243 16.2449C60.4598 16.2449 59.7421 16.0785 59.271 15.7458C58.8 15.4131 58.5645 14.985 58.5645 14.4617C58.5645 14.1925 58.6374 13.9215 58.7832 13.6486C58.929 13.3757 59.1888 13.129 59.5626 12.9084C59.9365 12.6878 60.4393 12.5065 61.071 12.3645C61.7028 12.2224 62.5084 12.1514 63.4879 12.1514C64.1757 12.1514 64.8505 12.1907 65.5121 12.2692C66.1738 12.3477 66.8149 12.4542 67.4355 12.5888C68.0561 12.7234 68.6505 12.8822 69.2187 13.0654C69.7869 13.2486 70.3178 13.4486 70.8112 13.6654L72.3701 10.7944C71.772 10.5252 71.1252 10.2804 70.4299 10.0598C69.7346 9.83925 69.0112 9.65047 68.2598 9.49346C67.5084 9.33645 66.7365 9.21495 65.9439 9.12897C65.1514 9.04299 64.3626 9 63.5776 9C62.4935 9 61.5271 9.07663 60.6785 9.22991C59.8299 9.38318 59.0822 9.59439 58.4355 9.86355C57.7888 10.1327 57.2374 10.4523 56.7813 10.8224C56.3252 11.1925 55.9533 11.5925 55.6654 12.0224C55.3776 12.4523 55.1682 12.9028 55.0374 13.3738C54.9065 13.8449 54.8411 14.3196 54.8411 14.7981C54.8411 15.6056 55.0056 16.3121 55.3346 16.9178C55.6636 17.5234 56.1065 18.028 56.6636 18.4318C57.2206 18.8355 57.8598 19.1383 58.5813 19.3402C59.3028 19.5421 60.0561 19.643 60.8411 19.643C61.3122 19.643 61.8149 19.6112 62.3495 19.5477C62.8841 19.4841 63.4262 19.415 63.9757 19.3402L64.7958 19.2322L65.6075 19.1327C66.1458 19.0692 66.6579 19.0374 67.1439 19.0374C68.2505 19.0374 69.0692 19.2224 69.6 19.5925C70.1308 19.9626 70.3963 20.4654 70.3963 21.1009C70.3963 21.4972 70.2897 21.8635 70.0766 22.2C69.8635 22.5365 69.5234 22.8262 69.0561 23.0692C68.5888 23.3122 67.9851 23.5028 67.2449 23.6411C66.5047 23.7794 65.6075 23.8486 64.5533 23.8486C63.6785 23.8486 62.8542 23.7963 62.0804 23.6916C61.3065 23.5869 60.5682 23.4355 59.8654 23.2374C59.1626 23.0393 58.4841 22.7963 57.8299 22.5084ZM24 9.2243H27.5776V26.7533H24V9.2243ZM32.086 9.2243H35.6411L46.5645 14.9439V9.2243H50.1196V26.7533H46.5645V18.7121L35.6411 13.0262V26.7533H32.086V9.2243ZM77.3832 9.2243H80.9383V18.8804C80.9383 19.6729 81.0467 20.3776 81.2636 20.9944C81.4804 21.6112 81.8037 22.1327 82.2336 22.5589C82.6636 22.985 83.1963 23.3084 83.8318 23.529C84.4673 23.7495 85.2075 23.8598 86.0523 23.8598C86.8897 23.8598 87.628 23.7495 88.2673 23.529C88.9065 23.3084 89.4411 22.985 89.871 22.5589C90.3009 22.1327 90.6243 21.6112 90.8411 20.9944C91.0579 20.3776 91.1664 19.6729 91.1664 18.8804V9.2243H94.7215V19.3065C94.7215 20.4579 94.5271 21.5047 94.1383 22.4467C93.7495 23.3888 93.1851 24.1963 92.4449 24.8692C91.7047 25.5421 90.7981 26.0617 89.7252 26.428C88.6523 26.7944 87.428 26.9776 86.0523 26.9776C84.6766 26.9776 83.4523 26.7944 82.3794 26.428C81.3065 26.0617 80.4 25.5421 79.6598 24.8692C78.9196 24.1963 78.3551 23.3888 77.9664 22.4467C77.5776 21.5047 77.3832 20.4579 77.3832 19.3065V9.2243ZM107.966 9.2243H99.0505V26.7533H102.606V21.7626L108.09 21.7738L111.387 26.7533H115.738L111.925 21.1458C112.591 20.8916 113.17 20.572 113.664 20.1869C114.157 19.8019 114.566 19.3626 114.892 18.8692C115.217 18.3757 115.458 17.8355 115.615 17.2486C115.772 16.6617 115.85 16.043 115.85 15.3925C115.85 14.428 115.692 13.5645 115.374 12.8019C115.056 12.0392 114.572 11.3925 113.921 10.8617C113.271 10.3308 112.452 9.92524 111.465 9.64486C110.479 9.36448 109.312 9.2243 107.966 9.2243ZM108.056 18.6897C108.729 18.6897 109.318 18.6112 109.822 18.4542C110.327 18.2972 110.75 18.0766 111.09 17.7925C111.43 17.5084 111.684 17.1626 111.852 16.7551C112.021 16.3477 112.105 15.8935 112.105 15.3925C112.105 14.4131 111.768 13.6561 111.095 13.1215C110.422 12.5869 109.409 12.3196 108.056 12.3196H102.606V18.6897H108.056ZM134.983 9.2243H120.056V26.7533H135.219V23.6467H123.611V18.7682H133.682V15.8411H123.611V12.3421H134.983V9.2243Z" fill="#2C2830"/>
</svg>

<svg xmlns="http://www.w3.org/2000/svg" width="172" height="39" fill="none"><path fill="#2C2830" fill-rule="evenodd" d="M57.83 22.508c-.654-.287-1.3-.61-1.935-.97L54 24.421c.665.38 1.389.73 2.17 1.048.781.318 1.604.59 2.467.819a21.58 21.58 0 0 0 2.709.527c.942.123 1.906.185 2.893.185 1.496 0 2.853-.14 4.071-.42 1.219-.28 2.26-.692 3.124-1.234.863-.542 1.529-1.208 1.996-1.997.467-.788.7-1.687.7-2.697 0-.755-.137-1.437-.414-2.046a4.19 4.19 0 0 0-1.222-1.56c-.539-.43-1.206-.76-2.002-.992-.797-.232-1.71-.347-2.743-.347-.545 0-1.108.028-1.687.084-.58.056-1.148.117-1.705.185l-.816.096-.776.089c-.505.056-.952.084-1.34.084-.965 0-1.683-.167-2.154-.5-.471-.332-.706-.76-.706-1.283 0-.27.072-.54.218-.813.146-.273.406-.52.78-.74.373-.221.876-.402 1.508-.545.632-.142 1.437-.213 2.417-.213.688 0 1.362.04 2.024.118.662.079 1.303.185 1.924.32.62.134 1.214.293 1.783.476.568.184 1.099.384 1.592.6l1.56-2.87a17.965 17.965 0 0 0-1.941-.735c-.695-.22-1.419-.41-2.17-.567a23.939 23.939 0 0 0-2.316-.364A21.925 21.925 0 0 0 63.578 9c-1.085 0-2.05.077-2.9.23-.848.153-1.596.364-2.242.634a6.683 6.683 0 0 0-1.655.958c-.456.37-.828.77-1.116 1.2-.287.43-.497.88-.628 1.352-.13.47-.196.946-.196 1.424 0 .808.165 1.514.494 2.12a4.5 4.5 0 0 0 1.329 1.514 5.982 5.982 0 0 0 1.917.908 8.347 8.347 0 0 0 2.26.303c.471 0 .974-.032 1.508-.095a97.12 97.12 0 0 0 1.627-.208l.82-.108.811-.1c.539-.063 1.05-.095 1.537-.095 1.106 0 1.925.185 2.456.556.53.37.796.872.796 1.508 0 .396-.106.762-.32 1.099-.212.337-.553.626-1.02.87-.467.242-1.07.433-1.811.571-.74.138-1.638.208-2.692.208-.874 0-1.699-.053-2.473-.157a16.126 16.126 0 0 1-2.215-.455 15.458 15.458 0 0 1-2.035-.729ZM24 9.224h3.578v17.53H24V9.223Zm8.086 0h3.555l10.924 5.72v-5.72h3.555v17.53h-3.555v-8.042L35.64 13.026v13.727h-3.555V9.224Zm45.297 0h3.555v9.656c0 .793.109 1.498.326 2.114.216.617.54 1.139.97 1.565.43.426.962.75 1.598.97.635.22 1.376.33 2.22.33.838 0 1.576-.11 2.215-.33.64-.22 1.174-.544 1.604-.97.43-.426.753-.948.97-1.565.217-.616.325-1.321.325-2.114V9.224h3.556v10.082c0 1.152-.195 2.199-.584 3.14a6.667 6.667 0 0 1-1.693 2.423c-.74.673-1.647 1.193-2.72 1.559-1.073.366-2.297.55-3.673.55-1.375 0-2.6-.184-3.673-.55-1.073-.366-1.979-.886-2.72-1.559a6.666 6.666 0 0 1-1.693-2.422c-.388-.942-.583-1.99-.583-3.14V9.223Zm30.583 0h-8.915v17.53h3.555v-4.991l5.484.01 3.297 4.98h4.351l-3.813-5.607a6.68 6.68 0 0 0 1.739-.96 5.551 5.551 0 0 0 1.228-1.317 5.518 5.518 0 0 0 .723-1.62 7.154 7.154 0 0 0 .235-1.856c0-.965-.158-1.829-.476-2.591a4.905 4.905 0 0 0-1.453-1.94c-.65-.531-1.469-.937-2.456-1.217-.986-.28-2.153-.42-3.499-.42Zm.09 9.466c.673 0 1.262-.079 1.766-.236.505-.157.928-.377 1.268-.662.34-.284.594-.63.762-1.037.169-.407.253-.861.253-1.362 0-.98-.337-1.737-1.01-2.272-.673-.534-1.686-.801-3.039-.801h-5.45v6.37h5.45Zm26.927-9.466h-14.927v17.53h15.163v-3.107h-11.608v-4.879h10.071v-2.927h-10.071v-3.499h11.372V9.224Z" clip-rule="evenodd"/></svg>
